dist/upp/assets/img/submenu-4.svg

<svg width="33" height="32" viewBox="0 0 33 32" fill="none" xmlns="http://www.w3.org/2000/svg">
<g id="Frame">
<g id="Group">
<path id="Vector" d="M11.5712 12.8575H21.9144C22.1576 12.8575 22.3544 12.6607 22.3544 12.4175C22.3544 12.1743 22.1576 11.9775 21.9144 11.9775H11.5712C11.328 11.9775 11.1312 12.1743 11.1312 12.4175C11.132 12.6607 11.3288 12.8575 11.5712 12.8575Z" fill="#090909"/>
<path id="Vector_2" d="M16.8576 15.0562H11.5712C11.328 15.0562 11.1312 15.253 11.1312 15.4962C11.1312 15.7394 11.328 15.9362 11.5712 15.9362H16.8576C17.1008 15.9362 17.2976 15.7394 17.2976 15.4962C17.2976 15.2538 17.1 15.0562 16.8576 15.0562Z" fill="#090909"/>
<path id="Vector_3" d="M16.8576 17.9146H11.5712C11.328 17.9146 11.1312 18.1114 11.1312 18.3546C11.1312 18.5978 11.328 18.7946 11.5712 18.7946H16.8576C17.1008 18.7946 17.2976 18.5978 17.2976 18.3546C17.2976 18.1114 17.1 17.9146 16.8576 17.9146Z" fill="#090909"/>
<path id="Vector_4" d="M16.8576 20.7729H11.5712C11.328 20.7729 11.1312 20.9697 11.1312 21.2129C11.1312 21.4561 11.328 21.6529 11.5712 21.6529H16.8576C17.1008 21.6529 17.2976 21.4561 17.2976 21.2129C17.2976 20.9697 17.1 20.7729 16.8576 20.7729Z" fill="#090909"/>
<path id="Vector_5" d="M28.7488 19.124C28.7488 17.5616 28.06 16.1576 26.972 15.196V9.34C26.972 9.3368 26.9712 9.3344 26.9712 9.3312C26.9704 9.2792 26.96 9.228 26.9408 9.1792C26.9384 9.1728 26.9352 9.1664 26.932 9.16C26.924 9.1424 26.9144 9.1248 26.904 9.108C26.9 9.1016 26.8968 9.096 26.8928 9.0896C26.8776 9.068 26.8616 9.0472 26.8432 9.0288L20.9432 3.1288C20.924 3.1096 20.904 3.0936 20.8824 3.0792C20.876 3.0752 20.8704 3.0712 20.864 3.0672C20.8472 3.0568 20.8304 3.048 20.8128 3.04C20.8064 3.0368 20.7992 3.0336 20.7928 3.0312C20.7688 3.0216 20.7448 3.0136 20.7192 3.0088C20.7192 3.0088 20.7192 3.0088 20.7184 3.0088C20.6928 3.004 20.6672 3.0016 20.6416 3.0008C20.6384 3.0008 20.636 3 20.6328 3H7.8424C7.5992 3 7.4024 3.1968 7.4024 3.44V25.0976H5.0392C5.0224 25.0976 5.0056 25.0984 4.9896 25.1008C4.9736 25.0992 4.9568 25.0976 4.94 25.0976C4.6968 25.0976 4.5 25.2944 4.5 25.5376C4.5 27.4464 6.0536 29 7.9632 29H23.5088C25.4184 29 26.972 27.4464 26.972 25.5368V23.052C28.06 22.0912 28.7488 20.6872 28.7488 19.124ZM27.8696 19.124C27.8696 21.5288 25.9136 23.4848 23.5088 23.4848C21.1048 23.4848 19.148 21.5288 19.148 19.124C19.148 16.7192 21.104 14.7632 23.5088 14.7632C25.9128 14.7632 27.8696 16.72 27.8696 19.124ZM21.072 4.5016L21.7448 5.1744L25.4704 8.9H21.072V4.5016ZM7.9632 28.1208C6.6888 28.1208 5.6272 27.1928 5.4176 25.9768H7.8424H20.0744C20.1824 26.8248 20.5976 27.5776 21.2056 28.1208H7.9632ZM26.092 25.5368C26.092 26.9616 24.9328 28.12 23.5088 28.12C22.0848 28.12 20.9256 26.9608 20.9256 25.5368C20.9256 25.2936 20.7288 25.0968 20.4856 25.0968H8.2824V3.8792H20.192V9.3392C20.192 9.5824 20.3888 9.7792 20.632 9.7792H26.092V14.568C25.3288 14.1336 24.4472 13.884 23.5088 13.884C20.6192 13.884 18.2688 16.2344 18.2688 19.124C18.2688 22.0136 20.6192 24.364 23.5088 24.364C24.448 24.364 25.3296 24.1144 26.092 23.68V25.5368Z" fill="#090909"/>
<path id="Vector_6" d="M23.6943 18.7663C23.4239 18.6527 23.2407 18.5463 23.1447 18.4471C23.0487 18.3479 23.0015 18.2167 23.0015 18.0511C23.0015 17.8727 23.0463 17.7311 23.1367 17.6255C23.2271 17.5207 23.3727 17.4679 23.5751 17.4679C23.7663 17.4679 23.9151 17.5311 24.0215 17.6559C24.1279 17.7815 24.1807 17.9615 24.1807 18.1951H25.0991L25.1055 18.1791C25.1119 17.7823 25.0055 17.4591 24.7863 17.2111C24.5671 16.9631 24.2647 16.8127 23.8783 16.7583V16.0591H23.3663V16.7487C22.9647 16.7895 22.6471 16.9255 22.4127 17.1559C22.1783 17.3871 22.0615 17.6831 22.0615 18.0463C22.0615 18.4391 22.1783 18.7439 22.4127 18.9607C22.6471 19.1775 23.0063 19.3679 23.4911 19.5303C23.7487 19.6287 23.9279 19.7319 24.0295 19.8375C24.1303 19.9439 24.1807 20.0855 24.1807 20.2615C24.1807 20.4399 24.1279 20.5807 24.0231 20.6831C23.9175 20.7863 23.7599 20.8375 23.5495 20.8375C23.3351 20.8375 23.1607 20.7791 23.0263 20.6615C22.8927 20.5447 22.8255 20.3487 22.8255 20.0735H21.9111L21.9015 20.0927C21.8927 20.5519 22.0215 20.9007 22.2863 21.1375C22.5519 21.3751 22.8903 21.5119 23.3031 21.5479V22.1823H23.8151V21.5479C24.2191 21.5071 24.5367 21.3743 24.7703 21.1503C25.0031 20.9263 25.1199 20.6271 25.1199 20.2535C25.1199 19.8631 25.0015 19.5551 24.7655 19.3311C24.5271 19.1111 24.1711 18.9215 23.6943 18.7663Z" fill="#090909"/>
</g>
</g>
</svg>

<svg width="33" height="32" fill="none" xmlns="http://www.w3.org/2000/svg"><g id="Frame"><g id="Group" fill="#090909"><path id="Vector" d="M11.571 12.857h10.343a.44.44 0 100-.88H11.571a.44.44 0 100 .88z"/><path id="Vector_2" d="M16.858 15.056H11.57a.44.44 0 100 .88h5.287a.44.44 0 100-.88z"/><path id="Vector_3" d="M16.858 17.915H11.57a.44.44 0 100 .88h5.287a.44.44 0 100-.88z"/><path id="Vector_4" d="M16.858 20.773H11.57a.44.44 0 100 .88h5.287a.44.44 0 100-.88z"/><path id="Vector_5" d="M28.749 19.124a5.232 5.232 0 00-1.777-3.928V9.331a.432.432 0 00-.031-.152l-.009-.019a.467.467 0 00-.028-.052l-.011-.018a.457.457 0 00-.05-.061l-5.9-5.9a.393.393 0 00-.06-.05l-.019-.012a.45.45 0 00-.145-.058.5.5 0 00-.077-.008L20.632 3H7.843a.44.44 0 00-.44.44v21.658H5.04c-.017 0-.033 0-.05.003a.44.44 0 00-.49.437A3.467 3.467 0 007.964 29H23.51a3.467 3.467 0 003.463-3.463v-2.485a5.229 5.229 0 001.777-3.928zm-.88 0a4.365 4.365 0 01-4.36 4.36 4.366 4.366 0 01-4.361-4.36 4.365 4.365 0 014.36-4.36 4.366 4.366 0 014.362 4.36zM21.073 4.502l.673.672L25.47 8.9h-4.398V4.502zM7.963 28.12a2.588 2.588 0 01-2.545-2.144h14.656a3.46 3.46 0 001.132 2.144H7.963zm18.129-2.584a2.586 2.586 0 01-2.583 2.583 2.587 2.587 0 01-2.583-2.583.44.44 0 00-.44-.44H8.282V3.879h11.91v5.46c0 .243.197.44.44.44h5.46v4.789a5.207 5.207 0 00-2.583-.684c-2.89 0-5.24 2.35-5.24 5.24s2.35 5.24 5.24 5.24c.939 0 1.82-.25 2.583-.684v1.857z"/><path id="Vector_6" d="M23.694 18.766c-.27-.113-.453-.22-.55-.319a.544.544 0 01-.142-.396c0-.178.044-.32.135-.425.09-.105.236-.158.438-.158.191 0 .34.063.447.188.106.126.159.306.159.54h.918l.006-.017c.007-.397-.1-.72-.319-.968s-.521-.398-.908-.453v-.699h-.512v.69c-.401.04-.719.177-.953.407-.235.231-.352.527-.352.89 0 .393.117.698.352.915.234.216.593.407 1.078.57.258.098.437.2.538.306a.593.593 0 01.152.425.561.561 0 01-.158.421c-.105.103-.263.154-.474.154a.765.765 0 01-.523-.175c-.133-.117-.2-.313-.2-.588h-.915l-.01.019c-.008.459.12.808.385 1.044.266.238.604.375 1.017.41v.635h.512v-.634c.404-.04.722-.174.955-.398.233-.224.35-.523.35-.896 0-.39-.119-.699-.355-.923-.238-.22-.594-.41-1.07-.565z"/></g></g></svg>
